X:230
T:I Was Born For Sport
R:jig
M:6/8
L:1/8
K:Gmaj
Bc|: dgg fdd | cAB cBc | dgg fdd | cAF GBc |
dgg fdd | cAB cBA | B/c/de fed |1 cAF GBc :|2 cAF GAB |:
c2A d2A | dfe dAB | c2A d2d | dcA GAB |
cBA d2A | dfe dAB | cde fed |1 cAF GAB :|2 cAF GBc |]
